src/lib/packages/icons/src/assets/line/snapchat.svg

<svg width="24" height="24" viewBox="0 0 24 24" fill="none" xmlns="http://www.w3.org/2000/svg">
<path d="M21.7001 16.4901C21.5401 15.9601 21.01 15.6601 20.91 15.6201C20.86 15.5901 20.8201 15.57 20.7601 15.54C20.2001 15.27 19.7 14.9401 19.29 14.5801C18.96 14.2801 18.6801 13.9701 18.4601 13.6401C18.2901 13.3901 18.1801 13.1701 18.1201 13.0001C18.2901 12.8901 18.48 12.76 18.66 12.65C18.83 12.54 18.9701 12.4501 19.0601 12.3901C19.4501 12.1101 19.73 11.8201 19.91 11.4801C20.16 11.0001 20.2001 10.4501 20.0001 9.94006C19.6901 9.11006 18.8501 8.64005 17.8401 8.81005C17.8401 8.31005 17.84 7.80006 17.8 7.38006C17.7301 6.63006 17.5801 6.00006 17.3201 5.44006C17.0501 4.84006 16.7001 4.42006 16.4601 4.16006C16.2001 3.87006 15.76 3.44005 15.1 3.06005C13.27 2.01005 10.77 2.00005 8.91004 3.06005C8.21004 3.46005 7.76005 3.92006 7.55005 4.16006C7.29005 4.46006 6.96007 4.87006 6.70007 5.44006C6.44007 6.00006 6.29003 6.64006 6.22003 7.38006C6.19003 7.76006 6.17005 8.24006 6.18005 8.80006C6.05005 8.78006 5.92004 8.77006 5.79004 8.77006C4.97004 8.77006 4.30009 9.22006 4.03009 9.94006C3.83009 10.4601 3.87006 11.0001 4.12006 11.4801C4.29006 11.8101 4.57003 12.1101 4.97003 12.3901C5.06003 12.4501 5.20004 12.54 5.42004 12.68C5.55004 12.77 5.74003 12.8901 5.91003 13.0001C5.84003 13.1701 5.73006 13.3901 5.56006 13.6401C5.34006 13.9701 5.06004 14.2901 4.73004 14.5801C4.31004 14.9501 3.81007 15.28 3.26007 15.54C3.21007 15.56 3.15007 15.5901 3.13007 15.6101C2.97007 15.6901 2.45005 15.99 2.30005 16.51C2.12005 17.14 2.42007 17.8201 3.07007 18.2401C3.61007 18.5901 4.23009 18.7701 4.65009 18.8801H4.68005C4.78005 19.3001 5.00007 19.6301 5.32007 19.8601C5.76007 20.1601 6.25004 20.1801 6.73004 20.2001C7.12004 20.2101 7.60007 20.2301 8.13007 20.4101C8.34007 20.4801 8.55008 20.6101 8.83008 20.7801C9.51008 21.2001 10.4401 21.7701 12.0001 21.7701C13.5601 21.7701 14.4901 21.2001 15.2001 20.7701C15.4601 20.6101 15.6701 20.4801 15.8701 20.4201C16.3901 20.2501 16.8501 20.2301 17.2701 20.2101C17.7501 20.1901 18.2401 20.17 18.6801 19.8701C19.0001 19.6501 19.2101 19.34 19.3201 18.9L19.42 18.8701C19.76 18.7801 20.2201 18.6501 20.7801 18.3401C21.7001 17.8101 21.8501 17.0201 21.7001 16.51V16.4901ZM20.22 16.8801C20.22 16.8801 20.14 16.96 20.05 17.01C19.66 17.2301 19.3501 17.3201 18.9901 17.4101L18.6801 17.5001C18.4301 17.5901 18.2501 17.7101 18.1201 17.8801C17.9701 18.0901 17.9301 18.3001 17.9001 18.4601C17.8801 18.5701 17.86 18.6001 17.85 18.6001C17.77 18.6601 17.4801 18.67 17.2101 18.68C16.7501 18.7 16.13 18.7301 15.41 18.9601C15.05 19.0801 14.7501 19.2601 14.4001 19.4801C13.7801 19.8601 13.1501 20.2501 12.0101 20.2501C10.8701 20.2501 10.2401 19.8601 9.62006 19.4801C9.29006 19.2801 8.98005 19.0901 8.61005 18.9601C7.87005 18.7201 7.22004 18.69 6.79004 18.68C6.54004 18.68 6.26005 18.6601 6.18005 18.6101C6.16005 18.6001 6.15006 18.5601 6.12006 18.4401C6.10006 18.3101 6.06008 18.0901 5.89008 17.8701C5.76008 17.7101 5.57006 17.5801 5.31006 17.4901C5.23006 17.4601 5.13009 17.4401 5.03009 17.4101C4.71009 17.3301 4.25008 17.1901 3.89008 16.9601C3.87008 16.9501 3.85008 16.9301 3.83008 16.9201C3.85008 16.9101 3.89009 16.8901 3.90009 16.8801C4.58009 16.5501 5.19003 16.1501 5.72003 15.6901C6.15003 15.3101 6.51005 14.8901 6.80005 14.4601C7.15005 13.9301 7.33004 13.4701 7.42004 13.1601C7.48004 12.9401 7.51008 12.7001 7.39008 12.4101C7.30008 12.1801 7.12005 12.0101 6.99005 11.9201C6.77005 11.7601 6.43004 11.5401 6.17004 11.3701C6.02004 11.2701 5.88006 11.1801 5.81006 11.1301C5.62006 11.0001 5.49005 10.87 5.43005 10.76C5.38005 10.66 5.37004 10.5601 5.42004 10.4501C5.49004 10.2701 5.74003 10.2201 5.97003 10.2701C6.22003 10.3201 6.45009 10.4201 6.59009 10.4601C6.82009 10.5801 7.12009 10.56 7.34009 10.43C7.57009 10.29 7.72008 10.0101 7.71008 9.74006C7.67008 8.77006 7.67008 8.01006 7.71008 7.49006C7.76008 6.92006 7.87006 6.44005 8.06006 6.04005C8.24006 5.65005 8.48005 5.35005 8.68005 5.12005C8.80005 4.99005 9.12009 4.64005 9.65009 4.34005C11.0501 3.55005 12.97 3.55005 14.35 4.34005C14.83 4.61005 15.1401 4.92006 15.3301 5.13006C15.5201 5.34006 15.7601 5.64006 15.9501 6.05006C16.1301 6.45006 16.25 6.93006 16.3 7.50006C16.35 8.14006 16.34 9.08005 16.3 9.78005C16.3 10.0401 16.45 10.3001 16.67 10.4401C16.87 10.5601 17.14 10.5901 17.35 10.5001C17.55 10.4201 17.7801 10.3301 18.0201 10.2801C18.3101 10.2201 18.5101 10.2801 18.5801 10.4601C18.6201 10.5701 18.6201 10.6701 18.5701 10.7701C18.5101 10.8901 18.3801 11.0101 18.1901 11.1401C18.1101 11.1901 17.9801 11.2801 17.7601 11.4201C17.5401 11.5601 17.2101 11.78 16.9901 11.93C16.8901 12 16.7101 12.1601 16.5901 12.4101C16.5001 12.6401 16.4901 12.8601 16.5701 13.1601C16.6401 13.4001 16.8101 13.8801 17.1901 14.4501C17.4801 14.8901 17.8401 15.3001 18.2701 15.6901C18.7901 16.1501 19.4001 16.5501 20.0901 16.8801L20.2001 16.8701L20.22 16.8801Z" fill="currentColor"/>
</svg>

<svg xmlns="http://www.w3.org/2000/svg" width="24" height="24" fill="none"><path fill="currentColor" d="M21.7 16.49c-.16-.53-.69-.83-.79-.87a2.04 2.04 0 0 0-.15-.08c-.56-.27-1.06-.6-1.47-.96-.33-.3-.61-.61-.83-.94-.17-.25-.28-.47-.34-.64.17-.11.36-.24.54-.35.17-.11.31-.2.4-.26.39-.28.67-.57.85-.91.25-.48.29-1.03.09-1.54-.31-.83-1.15-1.3-2.16-1.13 0-.5 0-1.01-.04-1.43-.07-.75-.22-1.38-.48-1.94-.27-.6-.62-1.02-.86-1.28-.26-.29-.7-.72-1.36-1.1-1.83-1.05-4.33-1.06-6.19 0-.7.4-1.15.86-1.36 1.1-.26.3-.59.71-.85 1.28-.26.56-.41 1.2-.48 1.94-.03.38-.05.86-.04 1.42-.13-.02-.26-.03-.39-.03-.82 0-1.49.45-1.76 1.17-.2.52-.16 1.06.09 1.54.17.33.45.63.85.91.09.06.23.15.45.29.13.09.32.21.49.32-.07.17-.18.39-.35.64-.22.33-.5.65-.83.94-.42.37-.92.7-1.47.96-.05.02-.11.05-.13.07-.16.08-.68.38-.83.9-.18.63.12 1.31.77 1.73.54.35 1.16.53 1.58.64h.03c.1.42.32.75.64.98.44.3.93.32 1.41.34.39.01.87.03 1.4.21.21.07.42.2.7.37.68.42 1.61.99 3.17.99 1.56 0 2.49-.57 3.2-1 .26-.16.47-.29.67-.35.52-.17.98-.19 1.4-.21.48-.02.97-.04 1.41-.34.32-.22.53-.53.64-.97l.1-.03c.34-.09.8-.22 1.36-.53.92-.53 1.07-1.32.92-1.83v-.02Zm-1.48.39s-.08.08-.17.13c-.39.22-.7.31-1.06.4l-.31.09c-.25.09-.43.21-.56.38-.15.21-.19.42-.22.58-.02.11-.04.14-.05.14-.08.06-.37.07-.64.08-.46.02-1.08.05-1.8.28-.36.12-.66.3-1.01.52-.62.38-1.25.77-2.39.77-1.14 0-1.77-.39-2.39-.77-.33-.2-.64-.39-1.01-.52-.74-.24-1.39-.27-1.82-.28-.25 0-.53-.02-.61-.07-.02-.01-.03-.05-.06-.17a1.18 1.18 0 0 0-.23-.57c-.13-.16-.32-.29-.58-.38-.08-.03-.18-.05-.28-.08-.32-.08-.78-.22-1.14-.45-.02-.01-.04-.03-.06-.04.02-.01.06-.03.07-.04a8.29 8.29 0 0 0 1.82-1.19c.43-.38.79-.8 1.08-1.23.35-.53.53-.99.62-1.3a1.088 1.088 0 0 0-.43-1.24c-.22-.16-.56-.38-.82-.55-.15-.1-.29-.19-.36-.24-.19-.13-.32-.26-.38-.37-.05-.1-.06-.2-.01-.31.07-.18.32-.23.55-.18.25.05.48.15.62.19.23.12.53.1.75-.03a.8.8 0 0 0 .37-.69c-.04-.97-.04-1.73 0-2.25.05-.57.16-1.05.35-1.45.18-.39.42-.69.62-.92.12-.13.44-.48.97-.78 1.4-.79 3.32-.79 4.7 0 .48.27.79.58.98.79.19.21.43.51.62.92.18.4.3.88.35 1.45.05.64.04 1.58 0 2.28 0 .26.15.52.37.66.2.12.47.15.68.06.2-.08.43-.17.67-.22.29-.06.49 0 .56.18.04.11.04.21-.01.31-.06.12-.19.24-.38.37-.08.05-.21.14-.43.28s-.55.36-.77.51c-.1.07-.28.23-.4.48-.09.23-.1.45-.02.75.07.24.24.72.62 1.29.29.44.65.85 1.08 1.24.52.46 1.13.86 1.82 1.19l.11-.01.02.01Z"/></svg>
